X:1
T:Musiciens qui chantez à plaisir
T:Musiciens qui chantez à plaisir
T:Hubert Waelrant
C:Hubert Waelrant
%%score [ 1 2 3 4 ]
L:1/8
Q:1/4=160
M:4/4
K:Bb
V:1 treble nm="S."
V:2 treble nm="A."
V:3 treble nm="T."
V:4 bass nm="B."
V:1
 B6 B2 | d6 c2 | d2 e2 c2 d2 | B4 d2 d2 | f8 | z4 z2 B2- | B2 B2 d4- | d2 c2 d2 e2 | cB- B4 A2 | %9
w: Mu- si-|ciens qui|chan- tez à plai-|sir, mu- si-|ciens,|mu-|* si- ciens|* qui chan- tez|à * * plai-|
 B4 B4 | BABc de f2 | e2 d2 e4 | z2 f2 fedc | dcBA B2 A2 | F2 c2 A2 F2 | c2 c2 B4 | A4 c4 | d8 | %18
w: sir. Qui|grin- * * * * * *|* go- tez,|re- frin- * * *|* * * * * go-|tez, re- frin- go-|tez la no-|te. Pre-|nez|
 d4 B4- | B4 c4 | c4 A4 | B8 | B4 G4- | G4 _A4 | _A6 A2 | _A4 A4 | F2 F2 G2 F2 | D4 z2 F2 | %28
w: un ton|* plus|doux, pre-|nez|un ton|* plus|doux, et|à loi-|sir, si- gni- fi-|ant, si-|
 G2 F2 E2 G2 | G2 _A4 G2- | GF F2- FE/D/ E2 | F4 z2 A2 | G2 A2 B2 c2 | c2 c2 d4 | z2 B2 e2 d2- | %35
w: gni- fi- ant ce|que le chant|* * dé- * * * no-|te, ce|que le chant, ce|que le chant,|ce que le|
 d2 c2- cc B2 | c4 c4 | c6 c2 | d4 d4 | B6 B2 | A2 A2 G2 A2 | B2 B2 c4 | F4 f4 | e2 c2 d4 | z4 f4 | %45
w: * chant * dé- no-|te. Ac-|cor- dez-|vous, ac-|cor- dez-|vous ain- si que|la li- no-|te qui|prend plai- sir,|qui|
 e2 c2 d2 B2 | A2 G4 A2- | AG G4 ^F2 | G2 B2 A2 B2 | c2 G2 G2 G2 | A2 c2 c2 c2 | d4 c2 c2 | %52
w: prend plai- sir en|son chant gra-|* * * ci-|eux. Soy- ez ex-|perts, soy- ez ex-|perts soy- ez ex-|perts des o-|
 d4 c2 c2 | c2 c2 d2 e2 | f2 d2 d2 e2 | f2 d2 c2 B2 | B2 A2 B3 c | d2 d2 c2 d2 | z4 B4 | B4 B4 | %60
w: reil- leset des|yeux, ou au- tre-|ment, ou au- tre-|ment, ou au- tre-|ment il vau- drait|mieux vous tai- re.|Et|je vous|
 G8 | A4 A4 | A4 A4 | _c8 | c4 c4- | c2 c2 c4 | d6 cd | e4 c4 | c8 | z2 c2 cBcd | e2 f2 e4 | %71
w: pri-|e, et|je vous|pri-|e que|* vous soy-|ez * *|* soi-|gneux|de ne * * *|* chan- ter,|
 z4 z2 f2 | fedc dcBA | G2 B2 c2 e2- | e2 d2- dc c2- | cB B2- BA/G/ A2 | B4 z2 B2 | BABc d2 e2 | %78
w: de|ne * * * * * * *|* chan- ter que|* vous * n'a- vez|* à boi- * * * *|re, de|ne * * * * chan-|
 c2 c2 cBcd | e2 f2 e4 | z4 z2 f2 | fedc dcBA | G2 B2 c2 e2- | e2 d2- dc c2- | cB B2- BA/G/ A2 | %85
w: ter, de ne * * *|* chan- ter,|de|ne * * * * * * *|* chan- ter que|* vous * n'a- vez|* à boi- * * * *|
 B8 |] %86
w: re.|
V:2
 z4 B4- | B2 B2 F4- | F2 G2 A2 B2 | G2 F2 F4 | F2 B4 A2- | A2 G4 F2 | G4 B4- | B2 A2 B2 B2 | %8
w: Mu-|* si- ciens|* qui chan- tez|à plai- sir,|qui chan- tez|* à plai-|sir, mu-|* si- ciens qui|
 A2 F2 F2 F2 | D4 D4 | EFGA B4 | F2 G2- GA B2 | z2 D2 DCDE | FEDC D2 D2 | C2 F2 F2 D2 | G2 F4 E2 | %16
w: chan- tez à plai-|sir. Qui|grin- * go- * tez,|qui grin- * go- tez,|re- frin- * * *|* * * * * go-|tez, re- frin- go-|tez la no-|
 F4 A4 | F8 | F4 G4- | G4 E4 | E4 F4 | F8 | F4 E4- | E4 E4 | E6 E2 | E4 E4 | D8 | z2 F2 G2 F2 | %28
w: te. Pre-|nez|un ton|* plus|doux, pre-|nez|un ton|* plus|doux, et|à loi-|sir,|si- gni- fi-|
 D2 D2 E4- | E2 E2 E4 | C4 C4 | C4 z2 F2 | =E2 F2 D2 A2 | G2 A2 B2 F2 | F4 G2 _A2 | G8 | G4 G4 | %37
w: ant ce que|* le chant|dé- no-|te, ce|que le chant, ce|que le chant dé-|no- * *||te. Ac-|
 A6 A2 | B4 B4 | F6 F2 | F2 F2 C2 C2 | E2 F2 E4 | D4 z2 B2 | G2 A2 B2 B2 | B2 A2 F2 F2 | %45
w: cor- dez-|vous, ac-|cor- dez-|vous ain- si que|la li- no-|te qui|prend plai- sir, qui|prend plai- sir, qui|
 G2 F2 F2 F2 | F2 G2 E4 | D8 | B,2 D2 D2 D2 | E2 E2 D2 =E2 | F2 F2 G2 F2 | F4 F2 F2 | B4 A2 G2 | %53
w: prend plai- sir en|son chant gra-|ci-|eux. Soy- ez ex-|perts, soy- ez ex-|perts soy- ez ex-|perts des o-|reil- leset des|
 A2 A2 B2 G2 | A2 B2 G2 G2 | F3 G A2 F2 | z8 | B4 A2 B2 | z4 F4 | F4 F4 | E8 | F4 F4 | F4 F4 | G8 | %64
w: yeux, ou au- tre-|ment il vau- drait|mieux vous tai- re,||vous tai- re.|Et|je vous|pri-|e, et|je vous|pri-|
 G4 A4- | A2 A2 A4 | B6 A2 | G4 _A4 | G8 | A8 | z2 A2 GFGA | B2 A2 FEFG | A2 B2 F4 | E2 G2 G4 | %74
w: e que|* vous soy-|ez *||soi-|gneux|de ne, * * *|* de ne * * *|* chan- ter|que vous n'a-|
 B4 G4 | F8 | F4 z2 F2 | EFGA B2 G2 | A8 | z2 A2 GFGA | B2 A2 FEFG | A2 B2 F4 | E2 G2 G4 | B4 G4 | %84
w: vez à|boi-|re, de|ne * * * * chan-|ter,|de ne, * * *|* de ne * * *|* chan- ter|que vous n'a-|vez à|
 F8 | F8 |] %86
w: boi-|re.|
V:3
 z8 | z8 | z8 | B6 B2 | d6 c2 | d2 e2 c2 d2 | d2 e2 f4- | f2 f2 f2 g2 | f2 d2 c4 | z8 | z4 z2 d2 | %11
w: |||Mu- si-|ciens qui|chan- tez à plai-|sir, * *|* qui chan- tez|à plai- sir.||Qui|
 dcBA BAGF | G2 B2 B4 | z2 F2 FEFG | AGAB c2 d2 | e2 f2 g4 | c4 f4 | B8 | B4 e4- | e4 _A4 | %20
w: grin- * * * * * * *|* go- tez,|re- frin- * * *|* * * * * go-|tez la no-|te. Pre-|nez|un ton|* plus|
 _A4 c4 | d8 | d4 B4- | B4 c4 | c6 c2 | c4 c4 | B4 z2 f2 | g2 f2 d4 | B4 B4- | B2 c4 B2- | %30
w: doux, pre-|nez|un ton|* plus|doux, et|à loi-|sir, si-|gni- fi- ant|ce que|* le chant|
 B2 _A2 G4 | A4 z2 c2 | c2 F2 B2 f2 | =e2 f2 B2 d2 | c2 d2 B2 f2- | f2 e2 d4 | z4 =e4 | f6 f2 | %38
w: * dé- no-|te, ce|que le chant, ce|que le chant, ce|que le chant dé-|* no- te.|Ac-|cor- dez-|
 f4 f4 | d6 d2 | c2 c2 c2 A2 | G2 B4 A2 | B3 c d2 cB | c4 z2 f2 | e2 c2 d2 d2 | B2 A2 B2 d2 | %46
w: vous, ac-|cor- dez-|vous ain- si que|la li- no-||te qui|prend plai- sir, qui|prend plai- sir en|
 c2 d4 c2- | cB BA/G/ A2 A2 | G4 z4 | z2 c2 B2 c2 | F2 A2 G2 A2 | B4 F2 F2 | f2 f4 =e2 | f4 z4 | %54
w: son chant gra-|* * * * * * ci-|eux.|Soy- ez ex-|perts, soy- ez ex-|perts des o-|reil- leset des|yeux,|
 z4 G4 | d3 e f2 d2 | e2 f2 d2 g2 | f6 f2 | z4 d4 | d4 d4 | B8 | d4 d4 | d4 d4 | d8 | =e4 f4- | %65
w: ou|au- tre- ment il|vau- drait mieux vous|tai- re.|Et|je vous|pri-|e, et|je vous|pri-|e que|
 f2 f2 f4- | f4 g4- | g2 f2 f4- | f4 =e4 | f8 | z2 c2 cdef | g2 c2 B4 | z2 f2 fedc | B2 e2 e2 g2- | %74
w: * vous soy-||* * ez|* soi-|gneux|de ne * * *|* chan- ter,|de ne * * *|* chan- ter que|
 g2 f2- ff e2- | e2 d2 c4 | d4 d4 | g6 c2 | f8 | z2 c2 cdef | g2 c2 B4 | z2 f2 fedc | %82
w: * vous * n'a- vez|* à boi-|re, de|ne chan-|ter,|de ne * * *|* chan- ter,|de ne * * *|
 B2 e2 e2 g2- | g2 f2- ff e2- | e2 d2 c4 | d8 |] %86
w: * chan- ter que|* vous * n'a- vez|* à boi-|re.|
V:4
 z8 | z8 | z8 | z4 B,4- | B,2 B,2 F,4- | F,2 G,2 A,2 B,2 | G,2 E,2 B,4- | B,2 F,2 B,2 E,2 | %8
w: |||Mu-|* si- ciens|* qui chan- tez|à plai- sir,|* qui chan- tez|
 F,4 F,4 | B,,8 | z4 z2 B,2 | B,A,G,F, G,F,E,D, | E,2 B,,2 B,,4 | z2 B,,2 B,,C,D,E, | %14
w: à plai-|sir.|Qui|grin- * * * * * * *|* go- tez,|re- frin- * * *|
 F,E,F,G, A,2 B,2 | C2 A,2 G,4 | F,8 | z8 | z8 | z8 | z4 F,4 | B,,8 | B,,4 E,4- | E,4 _A,,4 | %24
w: * * * * * go-|tez la no-|te.||||Pre-|nez|un ton|* plus|
 _A,,6 A,,2 | _A,,4 A,,4 | B,,4 B,,4 | B,,2 B,,2 B,,4- | B,,2 B,,2 E,4- | E,2 C,2 E,4 | F,4 C,4 | %31
w: doux, et|à loi-|sir, si-|gni- fi- ant|* ce que|* le chant|dé- no-|
 F,8 | z8 | z4 z2 B,2 | A,2 B,2 E,2 F,2 | G,8 | C,4 C,4 | F,6 F,2 | B,,4 B,,4 | B,6 B,2 | %40
w: te,||ce|que le chant dé-|no-|te. Ac-|cor- dez-|vous, ac-|cor- dez-|
 F,2 F,2 C,2 F,2 | E,2 D,2 C,4 | B,,8 | z4 z2 B,2 | G,2 A,2 B,2 B,,2 | E,2 F,2 B,,2 B,2 | %46
w: vous ain- si que|la li- no-|te|qui|prend plai- sir, qui|prend plai- sir en|
 F,2 B,,2 C,2 C,2 | D,8 | z2 G,2 ^F,2 G,2 | C,4 z4 | z2 F,2 =E,2 F,2 | B,,2 B,4 A,2 | B,4 C2 C2 | %53
w: son chant gra- ci-|eux.|Soy- ez ex-|perts,|soy- ez ex-|perts des o-|reil- leset des|
 F,4 z4 | z8 | B,4 A,2 B,2 | G,2 F,2 G,3 A, | B,2 B,,2 F,2 B,,2 | z4 B,,4 | B,,4 B,,4 | E,8 | %61
w: yeux,||ou au- tre-|ment il vau- drait|mieux vous tai- re.|Et|je vous|pri-|
 D,4 D,4 | D,4 D,4 | G,8 | C,4 F,4- | F,2 F,2 F,4 | B,2 A,2 G,2 F,2 | E,4 F,4 | C,8 | %69
w: e, et|je vous|pri-|e que|* vous soy-|ez * * *|* soi-|gneux|
 z2 F,2 F,G,A,B, | C2 F,2 C,4 | z2 F,2 B,,C,D,E, | F,2 B,,2 B,,2 B,,2 | E,4 C,4 | D,4 E,4 | F,8 | %76
w: de ne * * *|* chan- ter,|de ne * * *|* chan- ter que|vous n'a-|vez à|boi-|
 B,,8 | z8 | z2 F,2 F,G,A,B, | C2 F,2 C,4 | z2 F,2 B,,C,D,E, | F,2 B,,2 B,,2 B,,2 | E,4 C,4 | %83
w: re,||de ne * * *|* chan- ter,|de ne * * *|* chan- ter que|vous n'a-|
 D,4 E,4 | F,8 | B,,8 |] %86
w: vez à|boi-|re.|

